X: 30
T:Lilting Banshee, The
T:Miller of Glanmire, The
T:Ryan's Favourite
M:6/8
L:1/8
R:Double Jig
K:ADor
G[|EAA EAA|BAB G2A|Bee edB|dBA GED|!
EAA EAA|BAB G2A|Bee edB|1dBA A2G:|2dBA A2d|!
|:eaa age|dBA G2A|Bee edB|def gfg|!
eaa age|dBA G2A|Bee edB|1dBA A2d:|2dBA A2G|]!
